src/assets/svgs/refactor/portal-github.svg

<svg fill="none" height="22" viewBox="0 0 22 22" width="22" xmlns="http://www.w3.org/2000/svg"><path d="m10.9955 0c-6.06244 0-10.9955 4.98216-10.9955 11.1049 0 5.2468 3.68624 9.8184 8.76386 10.8768.06324.0092.12649.0183.1807.0183.4156 0 .79507-.3011.88542-.73.09938-.4927-.21684-.9763-.70472-1.0767-4.23737-.8851-7.31828-4.7084-7.31828-9.0884 0-5.119 4.11992-9.27993 9.18852-9.27993s9.1885 4.16093 9.1885 9.27993c0 3.8051-2.3039 7.1904-5.7281 8.5956.018-1.0128-.1085-3.1389-.2711-3.9693 2.0871-.5475 3.5417-2.5002 3.4875-4.6719.0542-1.0128-.2078-1.99833-.7499-2.85607.0903-.82123-.0181-1.66984-.2982-2.44545-.1265-.365-.4608-.62049-.8493-.62049-.0451 0-.0903 0-.1355.00912-.8583.11862-1.6985.42887-2.4213.91249-.6325-.16425-1.283-.2555-1.9516-.26462-.7137.01825-1.41845.11862-2.1051.29199-.71376-.52924-1.56304-.82123-2.50267-.83948-.37947 0-.71376.23724-.84025.60223-.26201.73912-.3614 1.5421-.28008 2.32684-.51499.86686-.76797 1.85234-.7499 2.86524.05421 2.1625 1.50883 4.0605 3.55072 4.6719-.04518.2281-.09938.5748-.13552.7938-.04518 0-.09035 0-.13553 0-.47885 0-.8041-.1003-1.21971-.6296-.35236-.5566-.91253-1.0037-1.50883-1.1862-.05421-.0091-.10842-.0183-.15359-.0183-.42464 0-.77701.292-.87639.7027-.09035.4288.14456.8486.5963 1.0493.25298.1369.56017.438.69569.6114.64148 1.0493 1.5269 1.1862 2.62916 1.2501.33429 0 .65955-.0456.9848-.1369.09035-.0274.1807-.073.28912-.146.06325-.0456.14456-.1186.16263-.1551.05421-.0548.23491-.2738.24394-.9855 0-.4471.10841-.8942.28911-1.2592.3253-.3833.2801-.949-.0994-1.2775-.1626-.1369-.3704-.219-.56917-.219-1.61725-.0912-2.90924-1.4417-2.93635-3.0842-.03614-.73.17167-1.45996.57824-2.04395.18069-.20987.26201-.48362.21683-.75736-.06324-.35587-.07228-.72087-.0271-1.07674.3614.1095.69569.30112.97577.57487.17166.16425.3885.25549.62341.25549.09035 0 .18973-.01825.27105-.04562.67761-.19162 1.37332-.31025 2.05992-.32849.6234.01824 1.2469.11862 1.8432.30111.0993.0365.2078.05475.3071.05475.2169 0 .4247-.08212.5783-.21899.3433-.292.7499-.50187 1.1745-.63874.0633.36499.0452.74824-.0361 1.11323-.0723.32849.0361.67524.262.86686.3975.55662.5602 1.24098.4788 1.95268.0633 1.606-1.1835 2.9747-2.7737 3.0386h-.1174-.0904c-.3704 0-.7137.2373-.8402.584-.1356.3559-.0271.7574.2529 1.0037.235.2008.4066 2.9109.3524 5.2012 0 .0456.0271.0912.0271.1369 0 .0547 0 .1186.009.1733.1265.4837.6235.7756 1.1023.6479 4.8156-1.2866 8.1766-5.703 8.1766-10.7399 0-6.09543-4.9331-11.0776-11.0045-11.0776z" fill="#000"/></svg>

<svg width="22" height="22" viewBox="0 0 22 22" fill="none" xmlns="http://www.w3.org/2000/svg">
<path d="M10.9955 0C4.93306 0 0 4.98216 0 11.1049C0 16.3517 3.68624 20.9233 8.76386 21.9817C8.8271 21.9909 8.89035 22 8.94456 22C9.36016 22 9.73963 21.6989 9.82998 21.27C9.92936 20.7773 9.61314 20.2937 9.12526 20.1933C4.88789 19.3082 1.80698 15.4849 1.80698 11.1049C1.80698 5.9859 5.9269 1.82497 10.9955 1.82497C16.0641 1.82497 20.184 5.9859 20.184 11.1049C20.184 14.91 17.8801 18.2953 14.4559 19.7005C14.4739 18.6877 14.3474 16.5616 14.1848 15.7312C16.2719 15.1837 17.7265 13.231 17.6723 11.0593C17.7265 10.0465 17.4645 9.06097 16.9224 8.20323C17.0127 7.382 16.9043 6.53339 16.6242 5.75778C16.4977 5.39278 16.1634 5.13729 15.7749 5.13729C15.7298 5.13729 15.6846 5.13729 15.6394 5.14641C14.7811 5.26503 13.9409 5.57528 13.2181 6.0589C12.5856 5.89465 11.9351 5.8034 11.2665 5.79428C10.5528 5.81253 9.84805 5.9129 9.1614 6.08627C8.44764 5.55703 7.59836 5.26504 6.65873 5.24679C6.27926 5.24679 5.94497 5.48403 5.81848 5.84902C5.55647 6.58814 5.45708 7.39112 5.5384 8.17586C5.02341 9.04272 4.77043 10.0282 4.7885 11.0411C4.84271 13.2036 6.29733 15.1016 8.33922 15.713C8.29404 15.9411 8.23984 16.2878 8.2037 16.5068C8.15852 16.5068 8.11335 16.5068 8.06817 16.5068C7.58932 16.5068 7.26407 16.4065 6.84846 15.8772C6.4961 15.3206 5.93593 14.8735 5.33963 14.691C5.28542 14.6819 5.23121 14.6727 5.18604 14.6727C4.7614 14.6727 4.40903 14.9647 4.30965 15.3754C4.2193 15.8042 4.45421 16.224 4.90595 16.4247C5.15893 16.5616 5.46612 16.8627 5.60164 17.0361C6.24312 18.0854 7.12854 18.2223 8.2308 18.2862C8.56509 18.2862 8.89035 18.2406 9.2156 18.1493C9.30595 18.1219 9.3963 18.0763 9.50472 18.0033C9.56797 17.9577 9.64928 17.8847 9.66735 17.8482C9.72156 17.7934 9.90226 17.5744 9.91129 16.8627C9.91129 16.4156 10.0197 15.9685 10.2004 15.6035C10.5257 15.2202 10.4805 14.6545 10.101 14.326C9.9384 14.1891 9.7306 14.107 9.53183 14.107C7.91458 14.0158 6.62259 12.6653 6.59548 11.0228C6.55934 10.2928 6.76715 9.56284 7.17372 8.97885C7.35441 8.76898 7.43573 8.49523 7.39055 8.22149C7.32731 7.86562 7.31827 7.50062 7.36345 7.14475C7.72485 7.25425 8.05914 7.44587 8.33922 7.71962C8.51088 7.88387 8.72772 7.97511 8.96263 7.97511C9.05298 7.97511 9.15236 7.95686 9.23368 7.92949C9.91129 7.73787 10.607 7.61924 11.2936 7.601C11.917 7.61924 12.5405 7.71962 13.1368 7.90211C13.2361 7.93861 13.3446 7.95686 13.4439 7.95686C13.6608 7.95686 13.8686 7.87474 14.0222 7.73787C14.3655 7.44587 14.7721 7.236 15.1967 7.09913C15.26 7.46412 15.2419 7.84737 15.1606 8.21236C15.0883 8.54085 15.1967 8.8876 15.4226 9.07922C15.8201 9.63584 15.9828 10.3202 15.9014 11.0319C15.9647 12.6379 14.7179 14.0066 13.1277 14.0705H13.0103H12.9199C12.5495 14.0705 12.2062 14.3078 12.0797 14.6545C11.9441 15.0104 12.0526 15.4119 12.3326 15.6582C12.5676 15.859 12.7392 18.5691 12.685 20.8594C12.685 20.905 12.7121 20.9506 12.7121 20.9963C12.7121 21.051 12.7121 21.1149 12.7211 21.1696C12.8476 21.6533 13.3446 21.9452 13.8234 21.8175C18.639 20.5309 22 16.1145 22 11.0776C22 4.98217 17.0669 0 10.9955 0Z" fill="black"/>
</svg>
